img/home/icons/usp-3.svg

<svg height="78" viewBox="0 0 81 78" width="81" xmlns="http://www.w3.org/2000/svg" xmlns:xlink="http://www.w3.org/1999/xlink"><mask id="a" fill="#fff"><path d="m.23144211.867625h17.21813679v9.9953333h-17.21813679z" fill="#fff" fill-rule="evenodd"/></mask><mask id="b" fill="#fff"><path d="m0 78h80v-78h-80z" fill="#fff" fill-rule="evenodd"/></mask><g fill="#fff" fill-rule="evenodd"><path d="m72.1768582 67-2.8894258-4.3030026h-4.1814987c-.5834866 0-1.1268294-.2974939-1.4367775-.7896098l-7.224965-11.4261726-3.7007057-2.4207286-8.8241851 14.7681126-2.9193004-1.7173086 9.73069-16.287092c.237129-.3957317.6264313-.6793239 1.0792169-.7821956.4527857-.1010182.9279772-.0185355 1.3144787.2335465l5.4941102 3.5930953c.2035202.1316016.3743651.3076883.5041325.5115782l6.9206184 10.9488849h4.1525577c.5657486 0 1.0969549.280812 1.4115709.7497586l3.3926247 5.0527612z"/><path d="m50.1131006 78-14.9397278-23.4279592h-4.2118322c-.5552819 0-1.0746783-.2713222-1.396704-.7254299l-7.7295621-10.908105-1.714008.8625191-3.1787056 4.8095432c-.3191927.4817159-.8546431.7701743-1.4288122.7701743h-2.4213313l-8.0921952 14.6809118-3.0002222-1.6783897 8.5813721-15.5729431c.3021942-.5483565.8763633-.8901272 1.5005833-.8901272h2.5138783l2.9227849-4.4201721c.1662069-.2503781.3937969-.4522037.6610499-.5873888l3.4317934-1.7307501c.7573743-.3798511 1.6752893-.1485132 2.1635219.5426444l8.0685862 11.3869649h4.266605c.5826683 0 1.1275622.2979784 1.4429775.7939745l15.4468475 24.2219336z"/><path d="m53 29c-.9667125 0-1.7495186-.8042258-1.7495186-1.7996038 0-2.018488-2.3060522-3.6001981-5.2504814-3.6001981v-3.6001981c2.9261348 0 5.4295736 1.0647078 7 2.7741829 1.5704264-1.7094751 4.0738652-2.7741829 7-2.7741829v3.6001981c-2.9444292 0-5.2504814 1.5817101-5.2504814 3.6001981 0 .995378-.7818432 1.7996038-1.7495186 1.7996038"/><path d="m67.0004814 12c-.9676088 0-1.7493983-.8042258-1.7493983-1.7996038 0-2.01749755-2.3058936-3.60019811-5.2510831-3.60019811v-3.60019809c2.9268964 0 5.4292002 1.06569825 7.0004814 2.7741829 1.5703184-1.70848465 4.0726222-2.7741829 6.9995186-2.7741829v3.60019809c-2.9451895 0-5.2501203 1.58270056-5.2501203 3.60019811 0 .995378-.7827523 1.7996038-1.7493983 1.7996038"/><path d="m8.84112632 10.8629583c-.95210527 0-1.72136843-.7443333-1.72136843-1.6655833 0-2.849-2.96147368-4.99858333-6.88831578-4.99858333v-3.33116667c3.67768421 0 6.78978947 1.39516667 8.60968421 3.59975 1.81894738-2.20458333 4.93105258-3.59975 8.60873688-3.59975v3.33116667c-3.9268421 0-6.8873685 2.14958333-6.8873685 4.99858333 0 .92125-.77021049 1.6655833-1.72136838 1.6655833" mask="url(#a)" transform="translate(63 30)"/><path d="m17.5 11.4c-2.8118191 0-5.0998129 2.287868-5.0998129 5.1004677 0 2.8116643 2.2879938 5.0995323 5.0998129 5.0995323 2.8127545 0 5.0998129-2.287868 5.0998129-5.0995323 0-2.8125997-2.2870584-5.1004677-5.0998129-5.1004677m0 13.6c-4.6863651 0-8.5-3.813425-8.5-8.4995323 0-4.6870427 3.8136349-8.5004677 8.5-8.5004677 4.6873005 0 8.5 3.813425 8.5 8.5004677 0 4.6861073-3.8126995 8.4995323-8.5 8.4995323"/><path d="m15 5h3v-5h-3z" mask="url(#b)"/><path d="m7.60130719 10-3.60130719-3.6 2.39962652-2.4 3.60037348 3.6z" mask="url(#b)"/><path d="m0 18h5v-3h-5z" mask="url(#b)"/><path d="m6.39962652 30-2.39962652-2.3990661 3.60130719-3.6009339 2.39869281 2.4009339z" mask="url(#b)"/><path d="m15 34h3v-5h-3z" mask="url(#b)"/><path d="m27.5996264 30-3.5996264-3.5990661 2.4003736-2.4009339 3.5996264 3.6009339z" mask="url(#b)"/><path d="m29 18h5v-3h-5z" mask="url(#b)"/><path d="m26.4003736 10-2.4003736-2.4 3.5996264-3.6 2.4003736 2.4z" mask="url(#b)"/></g></svg>

<svg id="usp-3" xmlns="http://www.w3.org/2000/svg" width="80.45" height="78" viewBox="0 0 80.45 78">
  <g id="TT-Home-01" transform="translate(-826 -643)">
    <g id="usp-3-2" data-name="usp-3" transform="translate(826 643)">
      <path id="Fill-1" d="M72.177,67l-2.889-4.3H65.106a1.7,1.7,0,0,1-1.437-.79L56.444,50.481l-3.7-2.421L43.919,62.829,41,61.111l9.731-16.287a1.7,1.7,0,0,1,1.079-.782,1.721,1.721,0,0,1,1.314.234l5.494,3.593a1.684,1.684,0,0,1,.5.512l6.921,10.949H70.2a1.7,1.7,0,0,1,1.412.75L75,65.132Z" fill="#36474f" fill-rule="evenodd"/>
      <path id="Fill-3" d="M50.113,78,35.173,54.572H30.962a1.713,1.713,0,0,1-1.4-.725l-7.73-10.908-1.714.863-3.179,4.81a1.714,1.714,0,0,1-1.429.77H13.092L5,64.062,2,62.383,10.581,46.81a1.715,1.715,0,0,1,1.5-.89H14.6l2.923-4.42a1.73,1.73,0,0,1,.661-.587l3.432-1.731a1.709,1.709,0,0,1,2.164.543l8.069,11.387H36.11a1.711,1.711,0,0,1,1.443.794L53,76.127Z" fill="#36474f" fill-rule="evenodd"/>
      <path id="Fill-5" d="M53,29a1.774,1.774,0,0,1-1.75-1.8c0-2.018-2.306-3.6-5.25-3.6V20a9.407,9.407,0,0,1,7,2.774A9.407,9.407,0,0,1,60,20v3.6c-2.944,0-5.25,1.582-5.25,3.6A1.773,1.773,0,0,1,53,29" fill="#36474f" fill-rule="evenodd"/>
      <path id="Fill-7" d="M67,12a1.773,1.773,0,0,1-1.749-1.8c0-2.017-2.306-3.6-5.251-3.6V3a9.412,9.412,0,0,1,7,2.774A9.408,9.408,0,0,1,74,3V6.6c-2.945,0-5.25,1.583-5.25,3.6A1.774,1.774,0,0,1,67,12" fill="#36474f" fill-rule="evenodd"/>
      <g id="Group-11" transform="translate(63 30)">
        <path id="Fill-9" d="M8.841,10.863A1.692,1.692,0,0,1,7.12,9.2c0-2.849-2.961-5-6.888-5V.868a11.023,11.023,0,0,1,8.61,3.6A11.02,11.02,0,0,1,17.45.868V4.2c-3.927,0-6.887,2.15-6.887,5a1.693,1.693,0,0,1-1.721,1.666" fill="#36474f" fill-rule="evenodd"/>
      </g>
      <path id="Fill-12" d="M17.5,11.4a5.1,5.1,0,1,0,5.1,5.1,5.106,5.106,0,0,0-5.1-5.1m0,13.6A8.5,8.5,0,1,1,26,16.5,8.51,8.51,0,0,1,17.5,25" fill="#36474f" fill-rule="evenodd"/>
      <path id="Fill-14" d="M15,5h3V0H15Z" fill="#36474f" fill-rule="evenodd"/>
      <path id="Fill-16" d="M7.6,10,4,6.4,6.4,4,10,7.6Z" fill="#36474f" fill-rule="evenodd"/>
      <path id="Fill-17" d="M0,18H5V15H0Z" fill="#36474f" fill-rule="evenodd"/>
      <path id="Fill-18" d="M6.4,30,4,27.6,7.6,24,10,26.4Z" fill="#36474f" fill-rule="evenodd"/>
      <path id="Fill-19" d="M15,34h3V29H15Z" fill="#36474f" fill-rule="evenodd"/>
      <path id="Fill-20" d="M27.6,30,24,26.4,26.4,24,30,27.6Z" fill="#36474f" fill-rule="evenodd"/>
      <path id="Fill-21" d="M29,18h5V15H29Z" fill="#36474f" fill-rule="evenodd"/>
      <path id="Fill-22" d="M26.4,10,24,7.6,27.6,4,30,6.4Z" fill="#36474f" fill-rule="evenodd"/>
    </g>
  </g>
</svg>
